Numix-uTouch/48x48/apps/almanah.svg

<?xml version="1.0" encoding="UTF-8" standalone="no"?>
<svg
   xmlns:dc="http://purl.org/dc/elements/1.1/"
   xmlns:cc="http://creativecommons.org/ns#"
   xmlns:rdf="http://www.w3.org/1999/02/22-rdf-syntax-ns#"
   xmlns:svg="http://www.w3.org/2000/svg"
   xmlns="http://www.w3.org/2000/svg"
   xmlns:sodipodi="http://sodipodi.sourceforge.net/DTD/sodipodi-0.dtd"
   xmlns:inkscape="http://www.inkscape.org/namespaces/inkscape"
   width="48"
   height="48"
   viewBox="0 0 48 48"
   id="svg2"
   version="1.1"
   inkscape:version="0.48.4 r9939"
   sodipodi:docname="_1.svg">
  <metadata
     id="metadata21">
    <rdf:RDF>
      <cc:Work
         rdf:about="">
        <dc:format>image/svg+xml</dc:format>
        <dc:type
           rdf:resource="http://purl.org/dc/dcmitype/StillImage" />
        <dc:title></dc:title>
      </cc:Work>
    </rdf:RDF>
  </metadata>
  <sodipodi:namedview
     pagecolor="#ffffff"
     bordercolor="#666666"
     borderopacity="1"
     objecttolerance="10"
     gridtolerance="10"
     guidetolerance="10"
     inkscape:pageopacity="0"
     inkscape:pageshadow="2"
     inkscape:window-width="1280"
     inkscape:window-height="998"
     id="namedview19"
     showgrid="false"
     inkscape:zoom="4.9166665"
     inkscape:cx="27.841599"
     inkscape:cy="22.208818"
     inkscape:window-x="0"
     inkscape:window-y="0"
     inkscape:window-maximized="1"
     inkscape:current-layer="svg2" />
  <defs
     id="defs4">
    <radialGradient
       cx="148.004"
       cy="160"
       gradientTransform="matrix(.1831 0 0 .1831 -3.10029 -5.29688)"
       id="radial0"
       r="128"
       gradientUnits="userSpaceOnUse">
      <stop
         offset="0"
         style="stop-color:#ff8f8f;stop-opacity:1;"
         id="stop7" />
      <stop
         offset="1"
         style="stop-color:#aa0000;stop-opacity:1;"
         id="stop9" />
    </radialGradient>
  </defs>
  <path
     style="fill:url(#radial0)"
     d="M 47.4375 11.546875 L 47.4375 36.453125 C 47.4375 46.703125 47.4375 47.4375 36.453125 47.4375 L 11.550781 47.4375 C 0.5625 47.4375 0.5625 46.703125 0.5625 36.453125 L 0.5625 11.546875 C 0.5625 1.296875 0.5625 0.5625 11.550781 0.5625 L 36.453125 0.5625 C 47.4375 0.5625 47.4375 1.296875 47.4375 11.546875 Z "
     id="path11" />
  <path
     inkscape:connector-curvature="0"
     id="path15"
     d="m 38.265625,47.4375 c 2.542969,-0.01172 4.378906,-0.08203 5.710937,-0.441406 l -4.230468,-7.25 -4.484375,7.691406 1.191406,0 c 0.640625,0 1.242187,0 1.8125,0 z m 1.480469,-7.691406 -5.125,-8.789063 -5.128906,8.789063 z m 0,0 7.652344,0 c 0.03125,-0.972656 0.03906,-2.0625 0.03906,-3.296875 l 0,-1.097657 -2.5625,-4.394531 z m 5.128906,-8.789063 -5.128906,-8.789062 -5.125,8.789062 z m 0,0 2.5625,0 0,-4.394531 z m -10.253906,0 -5.128906,-8.789062 -5.125,8.789062 z m -10.253906,0 -5.128907,8.789063 10.253907,0 z m 0,0 -5.128907,-8.789062 -5.125,8.789062 z m -10.253907,0 -5.128906,8.789063 10.253906,0 z m 0,0 -5.128906,-8.789062 -5.125,8.789062 z m -10.253906,0 -3.296875,5.648438 c 0,1.167969 0.011719,2.210937 0.039062,3.140625 l 8.382813,0 z m 0,0 -3.296875,-5.648437 0,5.648437 z m 5.125,8.789063 -4.3125,7.394531 c 1.597656,0.292969 3.808594,0.296875 6.878906,0.296875 l 1.921875,0 z m 0,-17.578125 -5.125,-8.789063 -3.296875,5.648438 0,3.140625 z m 0,0 10.253906,0 -5.125,-8.789063 z m 5.128906,-8.789063 -5.128906,-8.789062 -5.125,8.789062 z m 0,0 10.253907,0 -5.128907,-8.789062 z m 5.125,-8.789062 -2.351562,-4.027344 -5.335938,0 c -0.07813,0 -0.140625,0 -0.214843,0 L 8.984375,4.589844 z m 0,0 10.253907,0 -2.351563,-4.027344 -5.550781,0 z m 10.253907,0 10.253906,0 L 37.394531,0.5625 c -0.3125,0 -0.609375,0 -0.941406,0 l -4.609375,0 z m 0,0 -5.125,8.789062 10.253906,0 z m 5.128906,8.789062 10.253906,0 -5.128906,-8.789062 z m 0,0 -5.128906,8.789063 10.253906,0 z m 5.125,8.789063 7.691406,0 0,-4.394531 -2.5625,-4.394532 z m 5.128906,-8.789063 2.5625,0 0,-1.832031 c 0,-0.914063 -0.0078,-1.75 -0.02344,-2.523437 z m -15.382812,8.789063 -5.125,-8.789063 -5.128907,8.789063 z m 10.253906,-17.578125 7.308594,0 C 46.5,1.832031 45.167969,0.960938 42.023438,0.6875 z m -30.761719,0 L 6.679688,0.636719 C 3.019531,0.84375 1.539062,1.632812 0.945312,4.589844 z m -5.125,8.789062 L 0.621094,7.824219 C 0.578125,8.898438 0.5625,10.132812 0.5625,11.546875 l 0,1.832031 z m 15.378906,26.367188 -4.484375,7.691406 8.972656,0 z m 10.253907,0 -4.484376,7.691406 8.972657,0 z M 2.59375,46.367188 0.992188,43.621094 c 0.292968,1.316406 0.785156,2.179687 1.601562,2.746094 z"
     style="fill:#ffffff;fill-opacity:0.05100002" />
  <path
     inkscape:connector-curvature="0"
     style="fill:none"
     d="m 26.485139,24.15802 c 0.179749,-0.10103 0.387497,-0.158574 0.609179,-0.158574 l 0,0 0,0 1.826994,0 c 0.687497,0 1.24097,0.553476 1.24097,1.240968 l 0,2.091284 c 0,0.687493 -0.553473,1.240968 -1.24097,1.240968 l -1.826994,0 c -0.221683,0 -0.429429,-0.05755 -0.609179,-0.158577"
     id="path392" />
  <path
     style="fill:#f9f9f9;fill-opacity:1;fill-rule:evenodd"
     d="M 12 12 L 12 36 L 36 36 L 36 12 L 12 12 z M 30.5625 19.9375 C 30.5625 19.9375 32.498096 19.992543 32.5 21.34375 L 32.5 22.4375 C 32.5 22.4375 33.062501 22.412233 33.0625 22.71875 L 33.0625 25.5625 C 33.062473 25.819635 32.811743 26.062466 32.53125 26.0625 L 28.59375 26.0625 C 28.31326 26.062466 28.062526 25.819634 28.0625 25.5625 L 28.0625 22.71875 C 28.0625 22.41224 28.625 22.4375 28.625 22.4375 L 28.625 21.34375 C 28.63958 19.990959 30.562502 19.9375 30.5625 19.9375 z M 30.375 20.78125 C 30.0625 20.816892 29.4375 20.989057 29.4375 21.75 L 29.4375 22.4375 L 31.6875 22.4375 L 31.6875 21.75 C 31.6875 20.735406 30.5625 20.78125 30.5625 20.78125 C 30.5625 20.78125 30.479167 20.769369 30.375 20.78125 z M 13 31 L 35 31 L 35 35 L 13 35 L 13 31 z "
     id="rect20" />
</svg>

<svg xmlns="http://www.w3.org/2000/svg" viewBox="0 0 48 48"><defs><radialGradient id="0" cx="24" cy="24" r="23.437" gradientUnits="userSpaceOnUse"><stop stop-color="#3d3d3d"/><stop offset="1" stop-color="#1d1d1d"/></radialGradient></defs><path d="m 47.44 11.547 l 0 24.906 c 0 10.25 0 10.984 -10.984 10.984 l -24.902 0 c -10.988 0 -10.988 -0.734 -10.988 -10.984 l 0 -24.906 c 0 -10.25 0 -10.984 10.988 -10.984 l 24.902 0 c 10.984 0 10.984 0.734 10.984 10.984" fill="url(#0)"/><path d="m 12 12 l 0 24 l 24 0 l 0 -24 m -5.438 7.938 c 0 0 1.934 0.059 1.938 1.406 l 0 1.094 c 0 0 0.563 -0.023 0.563 0.281 l 0 2.844 c 0 0.258 -0.25 0.5 -0.531 0.5 l -3.938 0 c -0.281 0 -0.531 -0.242 -0.531 -0.5 l 0 -2.844 c 0 -0.309 0.563 -0.281 0.563 -0.281 l 0 -1.094 c 0.012 -1.352 1.938 -1.406 1.938 -1.406 m -0.188 0.844 c -0.313 0.035 -0.938 0.207 -0.938 0.969 l 0 0.688 l 2.25 0 l 0 -0.688 c 0 -1.016 -1.125 -0.969 -1.125 -0.969 c 0 0 -0.082 -0.012 -0.188 0 m -17.375 10.219 l 22 0 l 0 4 l -22 0 m 0 -4" fill="#fff" fill-rule="evenodd"/><path d="m 38.27 47.44 c 2.543 -0.012 4.379 -0.082 5.711 -0.441 l -4.23 -7.25 -4.484 7.691 1.191 0 c 0.641 0 1.242 0 1.813 0 z m 1.48 -7.691 -5.125 -8.789 -5.129 8.789 z m 0 0 7.652 0 c 0.031 -0.973 0.039 -2.063 0.039 -3.297 l 0 -1.098 -2.563 -4.395 z m 5.129 -8.789 -5.129 -8.789 -5.125 8.789 z m 0 0 2.563 0 0 -4.395 z m -10.254 0 -5.129 -8.789 -5.125 8.789 z m -10.254 0 -5.129 8.789 10.254 0 z m 0 0 -5.129 -8.789 -5.125 8.789 z m -10.254 0 -5.129 8.789 10.254 0 z m 0 0 -5.129 -8.789 -5.125 8.789 z m -10.254 0 -3.297 5.648 c 0 1.168 0.012 2.211 0.039 3.141 l 8.383 0 z m 0 0 -3.297 -5.648 0 5.648 z m 5.125 8.789 -4.313 7.395 c 1.598 0.293 3.809 0.297 6.879 0.297 l 1.922 0 z m 0 -17.578 -5.125 -8.789 -3.297 5.648 0 3.141 z m 0 0 10.254 0 -5.125 -8.789 z m 5.129 -8.789 -5.129 -8.789 -5.125 8.789 z m 0 0 10.254 0 -5.129 -8.789 z m 5.125 -8.789 -2.352 -4.03 -5.336 0 c -0.078 0 -0.141 0 -0.215 0 l -2.352 4.03 z m 0 0 10.254 0 -2.352 -4.03 -5.551 0 z m 10.254 0 10.254 0 l -2.352 -4.03 c -0.313 0 -0.609 0 -0.941 0 l -4.609 0 z m 0 0 -5.125 8.789 10.254 0 z m 5.129 8.789 10.254 0 -5.129 -8.789 z m 0 0 -5.129 8.789 10.254 0 z m 5.125 8.789 7.691 0 0 -4.395 -2.563 -4.395 z m 5.129 -8.789 2.563 0 0 -1.832 c 0 -0.914 -0.008 -1.75 -0.023 -2.523 z m -15.383 8.789 -5.125 -8.789 -5.129 8.789 z m 10.254 -17.578 7.309 0 c -0.555 -2.758 -1.887 -3.629 -5.03 -3.902 z m -30.762 0 l -2.305 -3.953 c -3.66 0.207 -5.141 0.996 -5.734 3.953 z m -5.125 8.789 l -3.238 -5.555 c -0.043 1.074 -0.059 2.309 -0.059 3.723 l 0 1.832 z m 15.379 26.367 -4.484 7.691 8.973 0 z m 10.254 0 -4.484 7.691 8.973 0 z m -26.898 6.621 -1.602 -2.746 c 0.293 1.316 0.785 2.18 1.602 2.746 z" fill="#fff" fill-opacity="0.024"/></svg>
